icons/uy.svg

<?xml version="1.0" ?>
<svg xmlns="http://www.w3.org/2000/svg" xmlns:ev="http://www.w3.org/2001/xml-events" xmlns:xlink="http://www.w3.org/1999/xlink" baseProfile="full" height="600px" version="1.1" viewBox="-358.8357988822057 -1028.9593881125577 10961.524339530977 12296.320647991857" width="535px">
	<defs/>
	<path d="M 2855.0,10220.0 C 2841.0,10205.0 2824.0,10200.0 2783.0,10200.0 C 2754.0,10200.0 2730.0,10196.0 2730.0,10190.0 C 2730.0,10185.0 2714.0,10173.0 2695.0,10164.0 C 2676.0,10155.0 2660.0,10142.0 2660.0,10136.0 C 2660.0,10130.0 2645.0,10093.0 2627.0,10055.0 C 2602.0,10002.0 2596.0,9978.0 2601.0,9955.0 C 2614.0,9899.0 2611.0,9892.0 2578.0,9885.0 C 2561.0,9881.0 2531.0,9861.0 2511.0,9841.0 L 2476.0,9805.0 L 2472.0,9830.0 C 2470.0,9844.0 2463.0,9858.0 2456.0,9862.0 C 2438.0,9874.0 2420.0,9871.0 2420.0,9856.0 C 2420.0,9848.0 2412.0,9832.0 2402.0,9820.0 C 2382.0,9796.0 2354.0,9801.0 2345.0,9831.0 C 2339.0,9848.0 2337.0,9849.0 2314.0,9834.0 C 2296.0,9822.0 2278.0,9819.0 2245.0,9824.0 C 2203.0,9831.0 2200.0,9830.0 2194.0,9806.0 C 2186.0,9774.0 2183.0,9774.0 2158.0,9805.0 C 2141.0,9826.0 2130.0,9830.0 2081.0,9830.0 C 2044.0,9830.0 2016.0,9824.0 2000.0,9813.0 C 1983.0,9801.0 1975.0,9800.0 1972.0,9808.0 C 1970.0,9815.0 1957.0,9834.0 1944.0,9849.0 C 1925.0,9872.0 1921.0,9885.0 1926.0,9909.0 C 1932.0,9935.0 1928.0,9946.0 1905.0,9970.0 C 1884.0,9992.0 1866.0,10000.0 1818.0,10005.0 C 1786.0,10009.0 1757.0,10010.0 1754.0,10008.0 C 1752.0,10005.0 1757.0,9987.0 1765.0,9967.0 C 1774.0,9944.0 1780.0,9899.0 1780.0,9848.0 C 1780.0,9773.0 1777.0,9761.0 1750.0,9720.0 C 1734.0,9695.0 1649.0,9605.0 1561.0,9520.0 L 1402.0,9365.0 L 1390.0,9300.0 C 1373.0,9199.0 1394.0,9114.0 1456.0,9040.0 C 1499.0,8989.0 1519.0,8899.0 1513.0,8783.0 C 1507.0,8675.0 1521.0,8576.0 1546.0,8549.0 C 1558.0,8535.0 1559.0,8527.0 1550.0,8511.0 C 1544.0,8499.0 1542.0,8486.0 1545.0,8481.0 C 1548.0,8476.0 1584.0,8451.0 1624.0,8427.0 L 1699.0,8382.0 L 1721.0,8406.0 C 1734.0,8420.0 1755.0,8430.0 1771.0,8430.0 C 1786.0,8430.0 1802.0,8435.0 1805.0,8440.0 C 1816.0,8458.0 1830.0,8450.0 1830.0,8426.0 C 1830.0,8406.0 1819.0,8399.0 1744.0,8371.0 C 1696.0,8354.0 1656.0,8341.0 1655.0,8342.0 C 1655.0,8344.0 1649.0,8356.0 1644.0,8369.0 C 1636.0,8389.0 1618.0,8397.0 1553.0,8415.0 C 1479.0,8434.0 1468.0,8435.0 1425.0,8422.0 L 1378.0,8409.0 L 1402.0,8382.0 C 1421.0,8361.0 1429.0,8336.0 1438.0,8270.0 C 1445.0,8223.0 1453.0,8175.0 1456.0,8163.0 C 1461.0,8145.0 1456.0,8138.0 1435.0,8128.0 C 1418.0,8121.0 1400.0,8099.0 1389.0,8076.0 C 1374.0,8041.0 1373.0,8033.0 1386.0,7997.0 C 1394.0,7975.0 1409.0,7943.0 1419.0,7926.0 C 1439.0,7894.0 1466.0,7803.0 1458.0,7794.0 C 1455.0,7792.0 1436.0,7804.0 1414.0,7820.0 L 1376.0,7851.0 L 1358.0,7828.0 C 1348.0,7815.0 1335.0,7786.0 1329.0,7763.0 C 1319.0,7727.0 1311.0,7717.0 1273.0,7699.0 C 1222.0,7674.0 1191.0,7621.0 1190.0,7558.0 C 1190.0,7505.0 1157.0,7439.0 1116.0,7410.0 C 1064.0,7374.0 1053.0,7326.0 1081.0,7266.0 C 1097.0,7234.0 1114.0,7217.0 1141.0,7205.0 C 1199.0,7178.0 1205.0,7133.0 1176.0,6944.0 C 1155.0,6803.0 1151.0,6790.0 1099.0,6690.0 L 1045.0,6585.0 L 988.0,6565.0 C 911.0,6537.0 883.0,6509.0 875.0,6450.0 C 869.0,6406.0 872.0,6396.0 898.0,6358.0 C 914.0,6334.0 933.0,6297.0 939.0,6275.0 C 953.0,6224.0 953.0,6131.0 939.0,6076.0 C 930.0,6040.0 931.0,6027.0 945.0,6001.0 C 953.0,5984.0 965.0,5944.0 971.0,5913.0 C 977.0,5880.0 993.0,5842.0 1008.0,5822.0 C 1032.0,5790.0 1035.0,5777.0 1038.0,5687.0 C 1043.0,5547.0 1028.0,5479.0 975.0,5404.0 C 951.0,5371.0 921.0,5317.0 908.0,5284.0 L 884.0,5225.0 L 927.0,5093.0 C 965.0,4975.0 971.0,4946.0 980.0,4813.0 C 999.0,4524.0 998.0,4530.0 1094.0,4421.0 C 1168.0,4338.0 1170.0,4317.0 1119.0,4161.0 C 1070.0,4006.0 1030.0,3943.0 966.0,3917.0 C 925.0,3900.0 823.0,3883.0 740.0,3878.0 C 701.0,3875.0 693.0,3871.0 675.0,3840.0 C 657.0,3809.0 655.0,3788.0 655.0,3640.0 C 654.0,3466.0 652.0,3454.0 602.0,3395.0 L 578.0,3366.0 L 606.0,3343.0 L 635.0,3320.0 L 598.0,3320.0 C 553.0,3320.0 551.0,3312.0 585.0,3272.0 C 617.0,3234.0 617.0,3200.0 584.0,3120.0 C 560.0,3060.0 559.0,3050.0 559.0,2836.0 C 558.0,2715.0 564.0,2559.0 571.0,2490.0 C 578.0,2421.0 583.0,2338.0 582.0,2305.0 C 579.0,2206.0 600.0,2160.0 679.0,2096.0 C 735.0,2051.0 749.0,2034.0 755.0,2003.0 C 759.0,1978.0 780.0,1945.0 817.0,1902.0 L 872.0,1840.0 L 877.0,1759.0 C 884.0,1667.0 897.0,1650.0 965.0,1650.0 C 987.0,1650.0 1028.0,1647.0 1056.0,1644.0 C 1103.0,1638.0 1109.0,1634.0 1141.0,1586.0 C 1187.0,1516.0 1260.0,1429.0 1344.0,1342.0 L 1415.0,1270.0 L 1419.0,1189.0 L 1422.0,1109.0 L 1474.0,1080.0 C 1532.0,1046.0 1598.0,1041.0 1655.0,1064.0 C 1674.0,1072.0 1711.0,1082.0 1737.0,1086.0 C 1763.0,1089.0 1808.0,1101.0 1835.0,1111.0 C 1895.0,1134.0 1958.0,1135.0 1984.0,1115.0 C 2012.0,1094.0 2043.0,1096.0 2075.0,1121.0 C 2100.0,1141.0 2106.0,1142.0 2155.0,1131.0 C 2197.0,1122.0 2214.0,1121.0 2231.0,1131.0 C 2246.0,1139.0 2273.0,1140.0 2314.0,1135.0 C 2348.0,1131.0 2423.0,1129.0 2481.0,1130.0 C 2679.0,1133.0 2762.0,1102.0 2804.0,1009.0 C 2824.0,965.0 2936.0,857.0 3050.0,771.0 C 3075.0,752.0 3115.0,718.0 3140.0,695.0 C 3165.0,672.0 3201.0,644.0 3221.0,633.0 C 3263.0,609.0 3433.0,548.0 3505.0,531.0 C 3533.0,524.0 3581.0,506.0 3613.0,489.0 C 3666.0,462.0 3679.0,460.0 3777.0,460.0 C 3880.0,460.0 3887.0,458.0 3963.0,423.0 L 4042.0,386.0 L 4006.0,375.0 C 3985.0,369.0 3960.0,351.0 3945.0,330.0 L 3920.0,296.0 L 3942.0,287.0 C 3955.0,283.0 3976.0,269.0 3990.0,256.0 C 4004.0,243.0 4031.0,227.0 4050.0,220.0 C 4069.0,213.0 4096.0,196.0 4111.0,183.0 C 4130.0,165.0 4148.0,160.0 4187.0,160.0 C 4235.0,160.0 4239.0,162.0 4249.0,191.0 L 4259.0,221.0 L 4290.0,204.0 C 4311.0,191.0 4320.0,178.0 4320.0,159.0 C 4320.0,141.0 4329.0,127.0 4347.0,115.0 C 4386.0,89.0 4416.0,93.0 4449.0,129.0 C 4472.0,154.0 4486.0,160.0 4518.0,160.0 C 4549.0,160.0 4569.0,168.0 4602.0,194.0 C 4689.0,264.0 5022.0,430.0 5076.0,431.0 C 5092.0,431.0 5125.0,439.0 5150.0,449.0 L 5195.0,468.0 L 5233.0,433.0 C 5265.0,405.0 5274.0,401.0 5286.0,411.0 C 5298.0,421.0 5308.0,421.0 5334.0,412.0 C 5424.0,379.0 5534.0,365.0 5622.0,374.0 C 5719.0,384.0 5740.0,380.0 5740.0,350.0 C 5740.0,333.0 5746.0,330.0 5788.0,330.0 C 5841.0,330.0 5880.0,304.0 5880.0,269.0 C 5880.0,244.0 5906.0,192.0 5933.0,163.0 C 5957.0,136.0 5984.0,134.0 6033.0,155.0 C 6058.0,165.0 6104.0,170.0 6174.0,170.0 C 6296.0,170.0 6314.0,166.0 6300.0,140.0 C 6292.0,124.0 6297.0,120.0 6343.0,110.0 C 6427.0,90.0 6456.0,75.0 6479.0,36.0 L 6502.0,0.0 L 6553.0,44.0 C 6619.0,99.0 6599.0,90.0 6927.0,226.0 C 7122.0,307.0 7257.0,371.0 7380.0,439.0 C 7576.0,549.0 7679.0,588.0 7801.0,598.0 L 7884.0,605.0 L 7900.0,658.0 C 7927.0,750.0 8059.0,890.0 8185.0,960.0 C 8218.0,978.0 8292.0,1021.0 8350.0,1055.0 C 8408.0,1090.0 8474.0,1124.0 8498.0,1131.0 C 8534.0,1142.0 8540.0,1147.0 8540.0,1171.0 C 8540.0,1189.0 8547.0,1203.0 8560.0,1210.0 C 8586.0,1224.0 8585.0,1234.0 8554.0,1276.0 C 8533.0,1303.0 8529.0,1317.0 8533.0,1346.0 C 8545.0,1418.0 8572.0,1458.0 8716.0,1621.0 C 8728.0,1634.0 8792.0,1696.0 8858.0,1757.0 C 8969.0,1861.0 8978.0,1873.0 8983.0,1912.0 C 8990.0,1973.0 9005.0,2031.0 9018.0,2057.0 C 9025.0,2069.0 9030.0,2107.0 9030.0,2142.0 L 9030.0,2205.0 L 9100.0,2279.0 C 9169.0,2352.0 9260.0,2472.0 9260.0,2490.0 C 9260.0,2496.0 9245.0,2500.0 9226.0,2500.0 C 9190.0,2500.0 9180.0,2515.0 9180.0,2572.0 C 9180.0,2595.0 9175.0,2599.0 9138.0,2605.0 C 9015.0,2623.0 9015.0,2623.0 9014.0,2749.0 C 9014.0,2817.0 9008.0,2857.0 8996.0,2885.0 L 8979.0,2925.0 L 8966.0,2901.0 L 8952.0,2877.0 L 8945.0,2899.0 C 8940.0,2917.0 8945.0,2929.0 8969.0,2954.0 L 9001.0,2987.0 L 8976.0,2998.0 C 8955.0,3007.0 8950.0,3021.0 8935.0,3105.0 C 8916.0,3208.0 8922.0,3263.0 8955.0,3290.0 C 8977.0,3308.0 8974.0,3316.0 8939.0,3331.0 L 8908.0,3343.0 L 8914.0,3404.0 C 8919.0,3451.0 8926.0,3470.0 8948.0,3493.0 L 8975.0,3521.0 L 8946.0,3510.0 C 8930.0,3504.0 8914.0,3503.0 8911.0,3508.0 C 8908.0,3512.0 8886.0,3541.0 8863.0,3571.0 C 8820.0,3626.0 8815.0,3644.0 8826.0,3687.0 C 8831.0,3704.0 8840.0,3710.0 8861.0,3710.0 C 8894.0,3710.0 8895.0,3715.0 8875.0,3750.0 C 8850.0,3794.0 8856.0,3826.0 8895.0,3850.0 L 8930.0,3871.0 L 8910.0,3910.0 C 8885.0,3959.0 8885.0,3970.0 8910.0,3970.0 C 8921.0,3970.0 8930.0,3963.0 8930.0,3955.0 C 8930.0,3931.0 8959.0,3938.0 8986.0,3968.0 C 8999.0,3983.0 9024.0,4021.0 9042.0,4053.0 C 9084.0,4131.0 9130.0,4170.0 9179.0,4170.0 C 9200.0,4170.0 9251.0,4173.0 9293.0,4176.0 C 9366.0,4183.0 9370.0,4184.0 9370.0,4207.0 C 9370.0,4241.0 9387.0,4270.0 9431.0,4311.0 C 9466.0,4344.0 9470.0,4353.0 9470.0,4396.0 C 9470.0,4423.0 9473.0,4455.0 9476.0,4467.0 C 9481.0,4487.0 9476.0,4491.0 9421.0,4507.0 C 9376.0,4520.0 9360.0,4530.0 9360.0,4543.0 C 9360.0,4564.0 9391.0,4566.0 9423.0,4547.0 C 9437.0,4538.0 9463.0,4535.0 9493.0,4538.0 C 9532.0,4541.0 9543.0,4547.0 9557.0,4570.0 C 9575.0,4601.0 9600.0,4615.0 9654.0,4625.0 C 9692.0,4633.0 9693.0,4635.0 9668.0,4733.0 C 9654.0,4789.0 9570.0,4866.0 9514.0,4874.0 C 9478.0,4878.0 9314.0,4959.0 9274.0,4991.0 C 9268.0,4996.0 9257.0,5019.0 9249.0,5042.0 C 9240.0,5070.0 9226.0,5089.0 9206.0,5099.0 C 9190.0,5108.0 9161.0,5129.0 9141.0,5146.0 C 9121.0,5163.0 9079.0,5186.0 9046.0,5196.0 C 9007.0,5208.0 8982.0,5223.0 8972.0,5240.0 C 8963.0,5254.0 8942.0,5281.0 8924.0,5301.0 C 8893.0,5336.0 8892.0,5340.0 8897.0,5403.0 C 8902.0,5463.0 8899.0,5476.0 8867.0,5547.0 C 8847.0,5590.0 8826.0,5657.0 8819.0,5695.0 C 8810.0,5751.0 8801.0,5772.0 8775.0,5800.0 C 8743.0,5834.0 8700.0,5909.0 8700.0,5930.0 C 8700.0,5935.0 8711.0,5940.0 8724.0,5940.0 C 8777.0,5940.0 8781.0,5948.0 8752.0,5995.0 C 8728.0,6035.0 8722.0,6039.0 8675.0,6046.0 C 8648.0,6049.0 8608.0,6062.0 8588.0,6074.0 C 8557.0,6091.0 8550.0,6101.0 8550.0,6127.0 C 8550.0,6156.0 8545.0,6161.0 8478.0,6194.0 C 8439.0,6214.0 8386.0,6250.0 8361.0,6273.0 C 8311.0,6320.0 8207.0,6400.0 8197.0,6400.0 C 8193.0,6400.0 8172.0,6380.0 8149.0,6355.0 L 8107.0,6310.0 L 8090.0,6349.0 C 8076.0,6378.0 8056.0,6397.0 8007.0,6427.0 C 7963.0,6453.0 7924.0,6488.0 7890.0,6530.0 C 7862.0,6565.0 7811.0,6613.0 7777.0,6636.0 C 7743.0,6659.0 7656.0,6738.0 7584.0,6812.0 C 7456.0,6942.0 7452.0,6946.0 7441.0,7004.0 C 7426.0,7084.0 7367.0,7204.0 7330.0,7230.0 C 7313.0,7242.0 7291.0,7269.0 7280.0,7291.0 L 7260.0,7330.0 L 7189.0,7330.0 C 7137.0,7330.0 7109.0,7335.0 7077.0,7352.0 C 7043.0,7370.0 7013.0,7374.0 6915.0,7378.0 L 6795.0,7382.0 L 6744.0,7436.0 C 6701.0,7482.0 6689.0,7490.0 6657.0,7490.0 C 6627.0,7490.0 6620.0,7494.0 6620.0,7509.0 C 6620.0,7519.0 6609.0,7535.0 6595.0,7544.0 C 6575.0,7557.0 6570.0,7569.0 6570.0,7604.0 C 6570.0,7633.0 6563.0,7657.0 6548.0,7676.0 C 6536.0,7692.0 6526.0,7706.0 6525.0,7707.0 C 6524.0,7708.0 6507.0,7716.0 6487.0,7725.0 L 6450.0,7740.0 L 6425.0,7690.0 C 6402.0,7645.0 6397.0,7640.0 6365.0,7640.0 C 6341.0,7640.0 6328.0,7646.0 6320.0,7660.0 C 6314.0,7671.0 6286.0,7698.0 6259.0,7720.0 C 6216.0,7754.0 6201.0,7760.0 6162.0,7760.0 C 6118.0,7760.0 6114.0,7762.0 6098.0,7798.0 C 6048.0,7904.0 5993.0,7986.0 5957.0,8005.0 C 5937.0,8016.0 5920.0,8033.0 5920.0,8042.0 C 5920.0,8088.0 5874.0,8178.0 5823.0,8231.0 C 5794.0,8262.0 5764.0,8303.0 5758.0,8322.0 C 5743.0,8365.0 5663.0,8451.0 5580.0,8515.0 C 5548.0,8540.0 5505.0,8581.0 5484.0,8605.0 C 5441.0,8658.0 5408.0,8664.0 5361.0,8625.0 C 5337.0,8604.0 5330.0,8589.0 5324.0,8542.0 C 5321.0,8511.0 5311.0,8468.0 5303.0,8448.0 C 5289.0,8412.0 5285.0,8410.0 5244.0,8410.0 C 5207.0,8410.0 5199.0,8406.0 5186.0,8382.0 C 5176.0,8363.0 5153.0,8347.0 5115.0,8331.0 C 5063.0,8309.0 5057.0,8309.0 5048.0,8324.0 C 5043.0,8333.0 5029.0,8340.0 5017.0,8340.0 C 5005.0,8340.0 4950.0,8372.0 4895.0,8411.0 C 4775.0,8496.0 4784.0,8486.0 4800.0,8505.0 C 4812.0,8519.0 4808.0,8527.0 4772.0,8560.0 C 4749.0,8581.0 4730.0,8604.0 4730.0,8611.0 C 4730.0,8619.0 4716.0,8654.0 4700.0,8688.0 C 4671.0,8749.0 4631.0,8793.0 4491.0,8916.0 C 4462.0,8942.0 4459.0,8949.0 4468.0,8967.0 C 4478.0,8985.0 4474.0,8990.0 4443.0,9011.0 C 4422.0,9024.0 4382.0,9069.0 4353.0,9110.0 C 4310.0,9170.0 4290.0,9189.0 4250.0,9207.0 C 4213.0,9224.0 4200.0,9235.0 4200.0,9250.0 C 4200.0,9291.0 4119.0,9345.0 4028.0,9364.0 C 4007.0,9369.0 4000.0,9376.0 4000.0,9394.0 C 4000.0,9426.0 3968.0,9463.0 3883.0,9529.0 C 3844.0,9559.0 3784.0,9620.0 3749.0,9666.0 C 3692.0,9739.0 3679.0,9750.0 3633.0,9765.0 L 3582.0,9781.0 L 3583.0,9823.0 C 3584.0,9878.0 3552.0,9944.0 3522.0,9948.0 C 3510.0,9950.0 3500.0,9957.0 3500.0,9964.0 C 3500.0,9987.0 3471.0,10005.0 3458.0,9992.0 C 3440.0,9974.0 3432.0,9978.0 3425.0,10009.0 C 3419.0,10039.0 3399.0,10050.0 3348.0,10050.0 C 3299.0,10050.0 3290.0,10059.0 3290.0,10105.0 C 3290.0,10144.0 3286.0,10152.0 3246.0,10184.0 C 3212.0,10213.0 3194.0,10220.0 3161.0,10220.0 C 3138.0,10220.0 3107.0,10214.0 3092.0,10206.0 C 3034.0,10177.0 3000.0,10178.0 2944.0,10210.0 C 2880.0,10246.0 2878.0,10246.0 2855.0,10220.0" fill="pink"/>
</svg>

<?xml version="1.0" standalone="no"?>
<!DOCTYPE svg PUBLIC "-//W3C//DTD SVG 20010904//EN"
 "http://www.w3.org/TR/2001/REC-SVG-20010904/DTD/svg10.dtd">
<svg version="1.0" xmlns="http://www.w3.org/2000/svg"
 width="1024.000000pt" height="1024.000000pt" viewBox="0 0 1024.000000 1024.000000"
 preserveAspectRatio="xMidYMid meet">
<metadata>
Created by potrace 1.10, written by Peter Selinger 2001-2011
</metadata>
<g transform="translate(0.000000,1024.000000) scale(0.100000,-0.100000)"
fill="#000000" stroke="none">
<path d="M2855 10220 c-14 -15 -31 -20 -72 -20 -29 0 -53 -4 -53 -10 0 -5 -16
-17 -35 -26 -19 -9 -35 -22 -35 -28 0 -6 -15 -43 -33 -81 -25 -53 -31 -77 -26
-100 13 -56 10 -63 -23 -70 -17 -4 -47 -24 -67 -44 l-35 -36 -4 25 c-2 14 -9
28 -16 32 -18 12 -36 9 -36 -6 0 -8 -8 -24 -18 -36 -20 -24 -48 -19 -57 11 -6
17 -8 18 -31 3 -18 -12 -36 -15 -69 -10 -42 7 -45 6 -51 -18 -8 -32 -11 -32
-36 -1 -17 21 -28 25 -77 25 -37 0 -65 -6 -81 -17 -17 -12 -25 -13 -28 -5 -2
7 -15 26 -28 41 -19 23 -23 36 -18 60 6 26 2 37 -21 61 -21 22 -39 30 -87 35
-32 4 -61 5 -64 3 -2 -3 3 -21 11 -41 9 -23 15 -68 15 -119 0 -75 -3 -87 -30
-128 -16 -25 -101 -115 -189 -200 l-159 -155 -12 -65 c-17 -101 4 -186 66
-260 43 -51 63 -141 57 -257 -6 -108 8 -207 33 -234 12 -14 13 -22 4 -38 -6
-12 -8 -25 -5 -30 3 -5 39 -30 79 -54 l75 -45 22 24 c13 14 34 24 50 24 15 0
31 5 34 10 11 18 25 10 25 -14 0 -20 -11 -27 -86 -55 -48 -17 -88 -30 -89 -29
0 2 -6 14 -11 27 -8 20 -26 28 -91 46 -74 19 -85 20 -128 7 l-47 -13 24 -27
c19 -21 27 -46 36 -112 7 -47 15 -95 18 -107 5 -18 0 -25 -21 -35 -17 -7 -35
-29 -46 -52 -15 -35 -16 -43 -3 -79 8 -22 23 -54 33 -71 20 -32 47 -123 39
-132 -3 -2 -22 10 -44 26 l-38 31 -18 -23 c-10 -13 -23 -42 -29 -65 -10 -36
-18 -46 -56 -64 -51 -25 -82 -78 -83 -141 0 -53 -33 -119 -74 -148 -52 -36
-63 -84 -35 -144 16 -32 33 -49 60 -61 58 -27 64 -72 35 -261 -21 -141 -25
-154 -77 -254 l-54 -105 -57 -20 c-77 -28 -105 -56 -113 -115 -6 -44 -3 -54
23 -92 16 -24 35 -61 41 -83 14 -51 14 -144 0 -199 -9 -36 -8 -49 6 -75 8 -17
20 -57 26 -88 6 -33 22 -71 37 -91 24 -32 27 -45 30 -135 5 -140 -10 -208 -63
-283 -24 -33 -54 -87 -67 -120 l-24 -59 43 -132 c38 -118 44 -147 53 -280 19
-289 18 -283 114 -392 74 -83 76 -104 25 -260 -49 -155 -89 -218 -153 -244
-41 -17 -143 -34 -226 -39 -39 -3 -47 -7 -65 -38 -18 -31 -20 -52 -20 -200 -1
-174 -3 -186 -53 -245 l-24 -29 28 -23 29 -23 -37 0 c-45 0 -47 -8 -13 -48 32
-38 32 -72 -1 -152 -24 -60 -25 -70 -25 -284 -1 -121 5 -277 12 -346 7 -69 12
-152 11 -185 -3 -99 18 -145 97 -209 56 -45 70 -62 76 -93 4 -25 25 -58 62
-101 l55 -62 5 -81 c7 -92 20 -109 88 -109 22 0 63 -3 91 -6 47 -6 53 -10 85
-58 46 -70 119 -157 203 -244 l71 -72 4 -81 3 -80 52 -29 c58 -34 124 -39 181
-16 19 8 56 18 82 22 26 3 71 15 98 25 60 23 123 24 149 4 28 -21 59 -19 91 6
25 20 31 21 80 10 42 -9 59 -10 76 0 15 8 42 9 83 4 34 -4 109 -6 167 -5 198
3 281 -28 323 -121 20 -44 132 -152 246 -238 25 -19 65 -53 90 -76 25 -23 61
-51 81 -62 42 -24 212 -85 284 -102 28 -7 76 -25 108 -42 53 -27 66 -29 164
-29 103 0 110 -2 186 -37 l79 -37 -36 -11 c-21 -6 -46 -24 -61 -45 l-25 -34
22 -9 c13 -4 34 -18 48 -31 14 -13 41 -29 60 -36 19 -7 46 -24 61 -37 19 -18
37 -23 76 -23 48 0 52 2 62 31 l10 30 31 -17 c21 -13 30 -26 30 -45 0 -18 9
-32 27 -44 39 -26 69 -22 102 14 23 25 37 31 69 31 31 0 51 8 84 34 87 70 420
236 474 237 16 0 49 8 74 18 l45 19 38 -35 c32 -28 41 -32 53 -22 12 10 22 10
48 1 90 -33 200 -47 288 -38 97 10 118 6 118 -24 0 -17 6 -20 48 -20 53 0 92
-26 92 -61 0 -25 26 -77 53 -106 24 -27 51 -29 100 -8 25 10 71 15 141 15 122
0 140 -4 126 -30 -8 -16 -3 -20 43 -30 84 -20 113 -35 136 -74 l23 -36 51 44
c66 55 46 46 374 182 195 81 330 145 453 213 196 110 299 149 421 159 l83 7
16 53 c27 92 159 232 285 302 33 18 107 61 165 95 58 35 124 69 148 76 36 11
42 16 42 40 0 18 7 32 20 39 26 14 25 24 -6 66 -21 27 -25 41 -21 70 12 72 39
112 183 275 12 13 76 75 142 136 111 104 120 116 125 155 7 61 22 119 35 145
7 12 12 50 12 85 l0 63 70 74 c69 73 160 193 160 211 0 6 -15 10 -34 10 -36 0
-46 15 -46 72 0 23 -5 27 -42 33 -123 18 -123 18 -124 144 0 68 -6 108 -18
136 l-17 40 -13 -24 -14 -24 -7 22 c-5 18 0 30 24 55 l32 33 -25 11 c-21 9
-26 23 -41 107 -19 103 -13 158 20 185 22 18 19 26 -16 41 l-31 12 6 61 c5 47
12 66 34 89 l27 28 -29 -11 c-16 -6 -32 -7 -35 -2 -3 4 -25 33 -48 63 -43 55
-48 73 -37 116 5 17 14 23 35 23 33 0 34 5 14 40 -25 44 -19 76 20 100 l35 21
-20 39 c-25 49 -25 60 0 60 11 0 20 -7 20 -15 0 -24 29 -17 56 13 13 15 38 53
56 85 42 78 88 117 137 117 21 0 72 3 114 6 73 7 77 8 77 31 0 34 17 63 61
104 35 33 39 42 39 85 0 27 3 59 6 71 5 20 0 24 -55 40 -45 13 -61 23 -61 36
0 21 31 23 63 4 14 -9 40 -12 70 -9 39 3 50 9 64 32 18 31 43 45 97 55 38 8
39 10 14 108 -14 56 -98 133 -154 141 -36 4 -200 85 -240 117 -6 5 -17 28 -25
51 -9 28 -23 47 -43 57 -16 9 -45 30 -65 47 -20 17 -62 40 -95 50 -39 12 -64
27 -74 44 -9 14 -30 41 -48 61 -31 35 -32 39 -27 102 5 60 2 73 -30 144 -20
43 -41 110 -48 148 -9 56 -18 77 -44 105 -32 34 -75 109 -75 130 0 5 11 10 24
10 53 0 57 8 28 55 -24 40 -30 44 -77 51 -27 3 -67 16 -87 28 -31 17 -38 27
-38 53 0 29 -5 34 -72 67 -39 20 -92 56 -117 79 -50 47 -154 127 -164 127 -4
0 -25 -20 -48 -45 l-42 -45 -17 39 c-14 29 -34 48 -83 78 -44 26 -83 61 -117
103 -28 35 -79 83 -113 106 -34 23 -121 102 -193 176 -128 130 -132 134 -143
192 -15 80 -74 200 -111 226 -17 12 -39 39 -50 61 l-20 39 -71 0 c-52 0 -80 5
-112 22 -34 18 -64 22 -162 26 l-120 4 -51 54 c-43 46 -55 54 -87 54 -30 0
-37 4 -37 19 0 10 -11 26 -25 35 -20 13 -25 25 -25 60 0 29 -7 53 -22 72 -12
16 -22 30 -23 31 -1 1 -18 9 -38 18 l-37 15 -25 -50 c-23 -45 -28 -50 -60 -50
-24 0 -37 6 -45 20 -6 11 -34 38 -61 60 -43 34 -58 40 -97 40 -44 0 -48 2 -64
38 -50 106 -105 188 -141 207 -20 11 -37 28 -37 37 0 46 -46 136 -97 189 -29
31 -59 72 -65 91 -15 43 -95 129 -178 193 -32 25 -75 66 -96 90 -43 53 -76 59
-123 20 -24 -21 -31 -36 -37 -83 -3 -31 -13 -74 -21 -94 -14 -36 -18 -38 -59
-38 -37 0 -45 -4 -58 -28 -10 -19 -33 -35 -71 -51 -52 -22 -58 -22 -67 -7 -5
9 -19 16 -31 16 -12 0 -67 32 -122 71 -120 85 -111 75 -95 94 12 14 8 22 -28
55 -23 21 -42 44 -42 51 0 8 -14 43 -30 77 -29 61 -69 105 -209 228 -29 26
-32 33 -23 51 10 18 6 23 -25 44 -21 13 -61 58 -90 99 -43 60 -63 79 -103 97
-37 17 -50 28 -50 43 0 41 -81 95 -172 114 -21 5 -28 12 -28 30 0 32 -32 69
-117 135 -39 30 -99 91 -134 137 -57 73 -70 84 -116 99 l-51 16 1 42 c1 55
-31 121 -61 125 -12 2 -22 9 -22 16 0 23 -29 41 -42 28 -18 -18 -26 -14 -33
17 -6 30 -26 41 -77 41 -49 0 -58 9 -58 55 0 39 -4 47 -44 79 -34 29 -52 36
-85 36 -23 0 -54 -6 -69 -14 -58 -29 -92 -28 -148 4 -64 36 -66 36 -89 10z"/>
</g>
</svg>
